X:1
T:Hosanna! Hosanna!
T:Hosanna! Hosanna!
T:Charles Hutchinson Gabriel
T:William J. Libberton, 1909
T:Public Domain Courtesy of the Cyber Hymnal™
T:Public Domain Courtesy of the Cyber Hymnal™
C:Charles Hutchinson Gabriel
Z:Public Domain
Z:Courtesy of the Cyber Hymnal™
%%score ( 1 2 ) ( 3 4 )
L:1/8
Q:1/4=102
M:4/4
K:Ab
V:1 treble 
V:2 treble 
V:3 bass 
V:4 bass 
V:1
 [CE] | [Ec]2 [Ec]2 [CA]3 [EA] | [FA]2 [DA]2 [CE]3 [CE] | [EA]2 [EB]2 [Ec]2 [Ec]2 | %4
w: 1.~To|God our king, who|rules a- bove, We|bring our trib- ute|
w: 2.~Let|mount- ains lift their|heads of stone, And|join the seas in|
w: 3.~Let|sons of men, re-|deemed by blood, Of|the In- car- nate|
w: 4.~Let|things on earth, with|things a- bove, Join|in the an- them|
 [Ed]2 [Ec]2 [EB]3 E | [Ec]2 [Ec]2 [CA]3 [EA] | [FA]2 [DA]2 [CE]3 [CE] | %7
w: and our love, And|glad- ly bow be-|fore His throne With|
w: swell- ing tone, To|e- cho back the|song we sing Of|
w: Son of God Join|hosts a- bove who|sweep the lyre, And|
w: of His love, Till|earth and sea, and|star- ry sky, U-|
 [B,=D]2 [DF]2 [DB]2 [DF]2 | [EG]2 [=DA]2 [DB]3 [Ec] | [Ed]2 [Ed]2 [Ec]2 [Ec]2 | %10
w: an- gel hosts, whose|sweet- est tone Is|heard in song of|
w: glo- ry, glo- ry|to our king Who|saves us by His|
w: all the bright an-|gel- ic choir Who|day and night un-|
w: nite as one to|make re- ply With|blood- washed hosts, be-|
 [EB]2 [E=A]2 [EB]2 [Ee]2 | [F=d]3 [Ac] [GB]>[FA] [EG]>[=DF] | E6 z3/2 x4 ||"^Refrain" [Ec]/ | %14
w: him who sings: Ho-|san- na to the King of|kings!||
w: pre- cious blood, Oh,|sing ho- san- na to our|God!|Ho-|
w: wear- ied sing Ho-|san- na, to our glor- ious|king!||
w: fore the throne, That|Christ is king, and He a-|lone.||
 ([Ec]7/2 [DB]/) [CA]7/2 [EAe]/ | (e7/2 d/) [Ec]7/2 [Ec]/ | [Gd]>[^Fc] [Gd]>[Fc] d7/2 [Ed]/ | %17
w: |||
w: san- * na, ho-|san- * na! Ho-|san- na to our God! Ho-|
w: |||
w: |||
 [Ec]>[=D=B] [Ec]>[F=d] | [Ec]>[_D_B] [CA]>[Ec] | ([Ec]7/2 [DB]/) [CA]7/2 [EAe]/ | %20
w: |||
w: san- na to the|might- y God! Ho-|san- * na, ho-|
w: |||
w: |||
 (e7/2 d/) [Ec]7/2 [Ec]/ |"^riten." [FB]>[FB] [Fc][Fd] [Ec]2 [EB]2 | [EA]6 z |] %23
w: |||
w: san- * na! Ho-|san- na to our Lord and|King!|
w: |||
w: |||
V:2
 x | x8 | x8 | x8 | x7 E | x8 | x8 | x8 | x8 | x8 | x8 | x8 | E6 x11/2 || x/ | x8 | [EA]4 x4 | %16
 x4 (G>^F G3/2) x/ | x4 | x4 | x8 | [EA]4 x4 | x8 | x7 |] %23
V:3
 [A,,A,] | [A,,A,]2 [A,,A,]2 [A,,A,]3 [C,A,] | A,2 A,2 A,3 A, | %3
w: ~|~ ~ ~ ~|~ ~ ~ ~|
 [C,A,]2 [B,,G,]2 [A,,A,]2 [A,,A,]2 | [G,,B,]2 [A,,A,]2 [E,G,]3 [E,G,] | %5
w: ~ ~ ~ ~|~ ~ ~ ~|
 [A,,A,]2 [A,,A,]2 [A,,A,]3 [C,A,] | ([D,A,]E,) A,2 A,3 [A,,A,] | %7
w: ~ ~ ~ ~|~ * ~ ~ ~|
 [B,,A,]2 [B,,A,]2 [B,,F,]2 [A,B,]2 | [G,B,]2 [F,B,]2 [E,G,]3 [E,A,] | %9
w: ~ ~ ~ ~|~ ~ ~ ~|
 [E,B,]2 [E,B,]2 [E,A,]2 [E,A,]2 | [E,G,]2 [E,^F,]2 [E,G,]2 [G,B,]2 | %11
w: ~ ~ ~ ~|~ ~ ~ ~|
 B,3 B, [B,,B,]>[B,,B,] [B,,B,]>[B,,A,] | z2 x19/2 || [A,,A,]/ | [A,,A,]4 [A,,E,]7/2 [A,,C]/ | %15
w: ~ ~ ~ ~ ~ ~||~|~ ~ ~|
 C7/2 B,/ A,7/2 A,/ | [E,B,]>[E,=A,] [E,B,]>[E,A,] [E,B,]>[E,A,] [E,B,]>[E,G,] | %17
w: ~ ~ ~ ~|~ ~ ~ ~ ~ ~ ~ ~|
 [A,,A,]>[A,,A,] [A,,A,]>[A,,A,] | [A,,A,]>[A,,E,] [A,,E,]>[A,,A,] | [A,,A,]4 [A,,E,]7/2 [A,,C]/ | %20
w: might- y God! *|||
 (C7/2 B,/) A,7/2 A,/ | [D,A,]>[D,A,] [D,A,][D,A,] [E,A,]2 [E,D]2 | [A,,C]6 z |] %23
w: |||
V:4
 x | x8 | (D,E,) (F,G,) A,3 A, | x8 | x8 | x8 | x2 (F,G,) A,3 x | x8 | x8 | x8 | x8 | B,3 B, x4 | %12
 ([E,G,]6 D,2) C,2 B,,3/2 || x/ | x8 | A,4 A,7/2 A,/ | x8 | x4 | x4 | x8 | A,4 A,7/2 A,/ | x8 | %22
 x7 |] %23

